X: 1
T:The Moonlight Jig
B:Joyce, P. W.; "Old Irish Folk Music and Songs"
R:jig
N:See #361 for further history
A:Cork
O:Irish
L:1/8
M:6/8
K:D
A2 B {B}AFD|Bcd d>cB|ABA AFD|G3 F2 E|
F/G/AB AFD|efg fed|e>fe ecA|d3 d3:|
|:fga afd|cde efg|fed cde|A3 A2 G|
FDG FDA|BGB BGg|fed c/d/ec|d3 d3:|
